!!!COM: Bach, Johann Sebastian
!!!OPR: Joh. Seb. Bachs vierstimmige Choralgesänge
!!!XEN: Four-part Chorales
!!!OTL: Chorale 125. Mein' Augen schliess' ich jetzt
!!!SCT: BWV 378
!!!SCA: Thematisch-systematisches Verzeichnis der musikalischen Werke Johann Sebastian Bach: Bach-Werke-Verzeichnis (Schmieder)
!!!YOR: Bach Gesellschaft Edition xxxix
!!!ENC: Steven Rasmussen
!!!CDT: 1685/3//-1750/7/28/
!!!OCY: Deutschland
!!!YEC: Copyright (c) 1994, 2000 Center for Computer Assisted Research in the Humanities
!!!YEM: Rights to all derivative editions reserved
!!!YEN: United States of America
**kern	**kern	**kern	**kern	**silbe
*I:[BASSO]	*I:[TENORE]	*I:[ALTO]	*I:[SOPRANO]	*I:[SOPRANO]
*clefF4	*clefGv2	*clefG2	*clefG2	*
*k[f#]	*k[f#]	*k[f#]	*k[f#]	*
*G:	*G:	*G:	*G:	*
*M4/4	*M4/4	*M4/4	*M4/4	*
8GGL	8BL	4d	4g	Mein'
8AAJ	8AJ	.	.	.
=1	=1	=1	=1	=1
8BBL	4G	4d	4g	Au-
8CJ	.	.	.	.
8DL	4F#	4A	4d	-gen
8CJ	.	.	.	.
4BB	4G	4d	4g	schliess'
4AA	4c	8eL	4a	ich
.	.	8f#J	.	.
=2	=2	=2	=2	=2
2GG;	2d;	2g;	2b;	jetzt
4r	4r	4r	4r	.
4BB	4d	4g	4dd	in
=3	=3	=3	=3	=3
4.C	4c	8gL	4ee	Got-
.	.	8f#J	.	.
.	4d	4g	4dd	-tes
8BB	.	.	.	.
4AA	8eL	8gL	4.cc	Na-
.	16dL	16f#L	.	.
.	16cJJ	16eJJ	.	.
4DD	4d	4f#	.	.
.	.	.	8dd	-men
=4	=4	=4	=4	=4
2GG;	2d;	2g;	2b;	zu,
4r	4r	4r	4r	.
4GG	4B	4g	4dd	die-
=5	=5	=5	=5	=5
4AA	4c	8gL	4cc	-weil
.	.	8f#J	.	.
8BBL	4d	4g	4b	der
8CJ	.	.	.	.
4D	4d	8gL	4a	mü-
.	.	8f#J	.	.
4E	4c#	8gL	4g	-de
.	.	8GJ	.	.
=6	=6	=6	=6	=6
2D;	2f#;	2d;	2a;	Leib
4r	4r	4r	4r	.
4D#	4B	4f#	4b	be-
=7	=7	=7	=7	=7
4.E	4B	8f#L	4g	-geh-
.	.	16eL	.	.
.	.	16f#JJ	.	.
.	8eL	8gL	4cc	-ret
8F#	8dJ	8aJ	.	.
4G	4d	8aL	4b	sei-
.	.	8gJ	.	.
4D	8.dL	8gL	4a	-ne
.	.	8f#J	.	.
.	16cJk	.	.	.
=8	=8	=8	=8	=8
2GG;	2B;	2d;	2g;	Ruh',
4r	4r	4r	4r	.
8GGL	4d	4g	8bL	weiss
8AAJ	.	.	8ccJ	.
=9	=9	=9	=9	=9
4.BB	8dL	4g	4dd	a-
.	8cJ	.	.	.
.	4B	4g	4dd	-ber
8E	.	.	.	.
4AA	4c	8gL	4cc	nicht,
.	.	8f#J	.	.
8BBL	4d	4g	4b	ob
8CJ	.	.	.	.
=10	=10	=10	=10	=10
2D;	2d;	(4g	2a;	ich
.	.	4f#;)	.	.
4r	4r	4r	4r	.
4D#	4B	4f#	4b	den
=11	=11	=11	=11	=11
8EL	8BL	4e	4g	Mor-
8DJ	8cJ	.	.	.
8CL	4d	4d	4g	-gen
8BBJ	.	.	.	.
8CL	4c	4e	4a	möcht'
8BBJ	.	.	.	.
8AAL	4B	4e	4b	er-
8GG#J	.	.	.	.
=12	=12	=12	=12	=12
8AAL	8BL	2e	2cc	-le-
8BB	16AL	.	.	.
.	16G#JJ	.	.	.
8C	4A	.	.	.
8DJ	.	.	.	.
4E;	(8AL	4e;	4b;	-ben;
.	8G#;J)	.	.	.
4BB	4Gn	8dL	4dd	es
.	.	8fnJ	.	.
=13	=13	=13	=13	=13
4C	4G	(8e	4cc	könn-
.	.	4g)	.	.
4D	4d	.	4a	-te
.	.	8f#	.	.
8GL	4d	4g	4b	mich
8F#J	.	.	.	.
4E	4e	4g	4cc	der
=14	=14	=14	=14	=14
2BB;	2d;	2g;	2dd;	Tod
4r	4r	4r	4r	.
8EL	4B	4e	4g	viel-
8DJ	.	.	.	.
=15	=15	=15	=15	=15
4C	8cL	8eL	4a	-leicht
.	8dJ	8f#J	.	.
8BBL	8dL	4g	4b	noch
8EJ	16eL	.	.	.
.	16dJJ	.	.	.
4AA	4c	8gL	4cc	heut'
.	.	8f#J	.	.
8BBL	4d	4g	4b	um-
8GGJ	.	.	.	.
=16	=16	=16	=16	=16
4C	4e	8gL	2a	-ge-
.	.	16f#L	.	.
.	.	16eJJ	.	.
4D	8.dL	4f#	.	.
.	16cJk	.	.	.
4GG;	4B;	4d;	4g;	-ben.
==|!	==|!	==|!	==|!	==|!
*-	*-	*-	*-	*-
!!!RWG: Key is interpreted using the Humdrum key tool.
!!!URL-pdf: https://s9.imslp.org/files/imglnks/usimg/6/6b/IMSLP24489-PMLP09471-CCARH_Bach_Chorales.pdf#page=88 Musedata edition
!!!URL-pdf: https://s9.imslp.org/files/imglnks/usimg/7/7a/IMSLP04155-Bach_-_BGA_253-438.pdf#page=69 	Bach-Gesellschaft Ausgabe, Band 39 (pp.175-276) Leipzig: Breitkopf und Härtel, 1892. Plate B.W. XXXIX.
!!!END: 1994/07/18
!!!EMD: Converted from MuseData to Humdrum Dec 19, 2000, by Andreas Kornstaedt using muse2kern.
!!!EED: Craig Stuart Sapp
!!!EEV: 2024/03/31
!!!filter-keyboard: extract -i kern | satb2gs
!!!title: @{OTL} (@{SCT})
